X: 36857
T: Ships In Full Sail, The
R: jig
M: 6/8
K: Gmajor
|:~G3BAB|dBG {A}GBd|~e3dBG|~A3BGE|
D3BAB|dBG {A}GBd|~e3dBA|{B}AGF~G2E:|
|:dg{a}g bg{a}g|aga bge|dg{a}g bg{a}g|~a3 age|
d{a}g{f}g b{a}g{f}g|aga age|~a3 ged|dcB ~c3:|

